public/images/sign-in-background-dark.svg

<?xml version="1.0" standalone="no"?>
<svg version="1.1" width="1000" height="1000" style="overflow: hidden; background-color: transparent;" xmlns="http://www.w3.org/2000/svg"><defs></defs><g id="t196065.99124310425wo-0" transform="matrix(1 0 0 1 0 0)" opacity="1"></g><g class="item" style="transform: translate(0px, 0px) rotate(270deg); transform-origin: 125px 125px; background-color: rgb(0, 0, 0);"><path d="M 0 0 L 250 0 L 250 250 L 0 250Z" fill="transparent"></path><path d="M 125 125 L 0 125.00000000000001 L 124.99999999999999 0 L 250 124.99999999999999Z" fill="#63e2b7"></path><path d="M 125 125 L 124.99999999999997 0 L 250 124.99999999999997 L 125.00000000000003 250Z" fill="#0a090c"></path></g><g class="item" style="transform: translate(0px, 250px) rotate(90deg); transform-origin: 125px 125px; background-color: rgb(0, 0, 0);"><path d="M 0 0 L 250 0 L 250 250 L 0 250Z" fill="transparent"></path><path d="M 125 0 A 125 125 0 0 1 125.00000000000001 250 L 125 125Z" fill="#63e2b7"></path><path d="M 0 125.00000000000003 A 125 125 0 0 1 250 124.99999999999996 L 125 125Z" fill="#63e2b7"></path></g><g class="item" style="transform: translate(0px, 500px) rotate(90deg); transform-origin: 125px 125px; background-color: rgb(0, 0, 0);"><path d="M 0 0 L 250 0 L 250 250 L 0 250Z" fill="transparent"></path><path d="M 0 0 L 250 0 L 250 125 L 125 125 L 125 250 L 0 250Z" fill="#07393c"></path><path d="M 250 -1.4210854715202004e-14 L 250 250 L 125.00000000000001 250 L 125 125 L 0 125.00000000000001 L -1.4210854715202004e-14 1.4210854715202004e-14Z" fill="#63e2b7"></path></g><g class="item" style="transform: translate(0px, 750px) rotate(360deg); transform-origin: 125px 125px; background-color: rgb(0, 0, 0);"><path d="M 0 0 L 250 0 L 250 250 L 0 250Z" fill="transparent"></path><path d="M 0 0 L 0 125 L 62.5 62.5 L 125 125 L 125 0Z" fill="#63e2b7"></path><path d="M 250 125 L 250 -7.105427357601002e-15 L 187.5 62.5 L 125 7.105427357601002e-15 L 125 125Z" fill="#2c666e"></path><path d="M 1.4210854715202004e-14 250 A 62.5 62.5 0 0 1 125.00000000000001 249.99999999999997 L 62.500000000000014 250Z" fill="#2c666e"></path><path d="M 125.00000000000001 250 A 62.5 62.5 0 0 1 250 249.99999999999997 L 187.5 250Z" fill="#f46197"></path></g><g class="item" style="transform: translate(250px, 0px) rotate(90deg); transform-origin: 125px 125px; background-color: rgb(0, 0, 0);"><path d="M 0 0 L 250 0 L 250 250 L 0 250Z" fill="transparent"></path><path d="M 187.5 125 L 250 187.5 L 187.5 250 L 125 187.5Z" fill="#2c666e"></path><path d="M 0 0 L 62.5 0 A 62.5 62.5 0 1 1 0 62.5 L 0 0Z" fill="#63e2b7"></path><path d="M 0 125 L 62.5 125 A 62.5 62.5 0 1 1 0 187.5 L 0 125Z" fill="#07393c"></path><path d="M 250 -7.105427357601002e-15 L 250 62.49999999999999 A 62.5 62.5 0 1 1 187.5 0 L 250 -7.105427357601002e-15Z" fill="#0a090c"></path></g><g class="item" style="transform: translate(250px, 250px) rotate(0deg); transform-origin: 125px 125px; background-color: rgb(0, 0, 0);"><path d="M 0 0 L 250 0 L 250 250 L 0 250Z" fill="transparent"></path><path d="M 125.00000000000001 250 A 125 125 0 0 1 124.99999999999997 0 L 125 125Z" fill="#07393c"></path><path d="M 250 83.33333333333333 L 208.33333333333331 125 L 250 166.66666666666666 L 208.33333333333331 166.66666666666666 L 166.66666666666666 125 L 208.33333333333331 83.33333333333333Z" fill="#07393c"></path></g><g class="item" style="transform: translate(250px, 500px) rotate(90deg); transform-origin: 125px 125px; background-color: rgb(0, 0, 0);"><path d="M 0 0 L 250 0 L 250 250 L 0 250Z" fill="transparent"></path><path d="M 250 250 L 125.00000000000001 250 L -1.4210854715202004e-14 1.4210854715202004e-14 L 124.99999999999999 0Z" fill="#07393c"></path><path d="M 83.33333333333333 83.33333333333333 L 125 83.33333333333333 A 41.666666666666664 41.666666666666664 0 0 1 125 166.66666666666666 L 83.33333333333333 166.66666666666666Z" fill="#f46197"></path></g><g class="item" style="transform: translate(250px, 750px) rotate(270deg); transform-origin: 125px 125px; background-color: rgb(0, 0, 0);"><path d="M 0 0 L 250 0 L 250 250 L 0 250Z" fill="transparent"></path><path d="M 250 124.99999999999999 A 125 125 0 0 1 0 125.00000000000003 L 125 125Z" fill="#63e2b7"></path><path d="M 166.66666666666666 125 A 41.666666666666664 41.666666666666664 0 0 1 83.33333333333333 125 L 125 125Z" fill="#2c666e"></path></g><g class="item" style="transform: translate(500px, 0px) rotate(0deg); transform-origin: 125px 125px; background-color: rgb(0, 0, 0);"><path d="M 0 0 L 250 0 L 250 250 L 0 250Z" fill="transparent"></path><path d="M 1.4210854715202004e-14 125.00000000000001 L 0 62.500000000000014 A 62.5 62.5 0 1 1 62.500000000000014 125 L 1.4210854715202004e-14 125.00000000000001Z" fill="#0a090c"></path><path d="M 125 125 L 125 187.5 A 62.5 62.5 0 1 1 62.49999999999999 125 L 125 125Z" fill="#0a090c"></path><path d="M 250 -7.105427357601002e-15 L 250 62.49999999999999 A 62.5 62.5 0 1 1 187.5 0 L 250 -7.105427357601002e-15Z" fill="#f46197"></path><path d="M 125.00000000000001 250 L 125 187.5 A 62.5 62.5 0 1 1 187.5 250 L 125.00000000000001 250Z" fill="#63e2b7"></path></g><g class="item" style="transform: translate(500px, 250px) rotate(90deg); transform-origin: 125px 125px; background-color: rgb(0, 0, 0);"><path d="M 0 0 L 250 0 L 250 250 L 0 250Z" fill="transparent"></path><path d="M 250.00000000000003 249.99999999999997 L 0 125.00000000000003 L 249.99999999999997 -2.842170943040401e-14Z" fill="#2c666e"></path><path d="M 2.842170943040401e-14 250.00000000000003 L 249.99999999999997 -2.842170943040401e-14 L 250.00000000000003 249.99999999999997Z" fill="#0a090c"></path></g><g class="item" style="transform: translate(500px, 500px) rotate(270deg); transform-origin: 125px 125px; background-color: rgb(0, 0, 0);"><path d="M 0 0 L 250 0 L 250 250 L 0 250Z" fill="transparent"></path><path d="M 125 125 L 62.50000000000001 125 A 62.5 62.5 0 0 1 62.49999999999999 0 L 125 -7.105427357601002e-15Z" fill="#2c666e"></path><path d="M 250 250 L 187.5 250 A 62.5 62.5 0 0 1 187.5 125 L 250 125Z" fill="#07393c"></path><path d="M 250 125 A 125 125 0 0 1 125 2.1316282072803006e-14 L 250 -7.105427357601002e-15Z" fill="#f46197"></path><path d="M 1.4210854715202004e-14 250 L 0 187.5 A 62.5 62.5 0 0 1 125 187.5 L 125.00000000000001 250Z" fill="#2c666e"></path></g><g class="item" style="transform: translate(500px, 750px) rotate(90deg); transform-origin: 125px 125px; background-color: rgb(0, 0, 0);"><path d="M 0 0 L 250 0 L 250 250 L 0 250Z" fill="transparent"></path><path d="M 0 125 A 125 125 0 0 1 125 250 L 125 125Z" fill="#07393c"></path><path d="M 125 125 A 125 125 0 0 1 250 250 L 250 125Z" fill="#2c666e"></path><path d="M 125 -7.105427357601002e-15 L 125 62.49999999999999 A 62.5 62.5 0 0 0 0 62.50000000000001 L -7.105427357601002e-15 7.105427357601002e-15Z" fill="#63e2b7"></path><path d="M 250 -7.105427357601002e-15 L 250 62.49999999999999 A 62.5 62.5 0 0 0 125 62.50000000000001 L 125 7.105427357601002e-15Z" fill="#63e2b7"></path></g><g class="item" style="transform: translate(750px, 0px) rotate(90deg); transform-origin: 125px 125px; background-color: rgb(0, 0, 0);"><path d="M 0 0 L 250 0 L 250 250 L 0 250Z" fill="transparent"></path><path d="M 0 0 A 62.5 62.5 0 0 1 7.654042494670958e-15 125 L 0 62.5Z" fill="#07393c"></path><path d="M 0 125 A 62.5 62.5 0 0 1 7.654042494670958e-15 250 L 0 187.5Z" fill="#0a090c"></path><path d="M 250 -7.105427357601002e-15 L 250 125 L 125 62.50000000000001 L 125 7.105427357601002e-15Z" fill="#0a090c"></path><path d="M 250 125 L 250 250 L 125 187.5 L 125 125Z" fill="#07393c"></path></g><g class="item" style="transform: translate(750px, 250px) rotate(90deg); transform-origin: 125px 125px; background-color: rgb(0, 0, 0);"><path d="M 0 0 L 250 0 L 250 250 L 0 250Z" fill="transparent"></path><path d="M 125 0 A 125 125 0 0 1 250 124.99999999999999 L 125 125Z" fill="#0a090c"></path><path d="M 125 250 A 125 125 0 0 1 -7.105427357601002e-15 125.00000000000003 L 125 125Z" fill="#63e2b7"></path><path d="M 250 250 A 125 125 0 0 1 125 125.00000000000003 L 125 250Z" fill="#0a090c"></path><path d="M 1.4210854715202004e-14 125.00000000000001 A 125 125 0 0 1 124.99999999999997 -1.4210854715202004e-14 L 125.00000000000001 124.99999999999999Z" fill="#f46197"></path></g><g class="item" style="transform: translate(750px, 500px) rotate(360deg); transform-origin: 125px 125px; background-color: rgb(0, 0, 0);"><path d="M 0 0 L 250 0 L 250 250 L 0 250Z" fill="transparent"></path><path d="M 250 -1.4210854715202004e-14 L 250 250 A 125 125 0 0 0 1.4210854715202004e-14 250 L -1.4210854715202004e-14 1.4210854715202004e-14Z" fill="#f46197"></path><path d="M 166.66666666666666 166.66666666666666 L 166.66666666666666 208.33333333333331 A 41.666666666666664 41.666666666666664 0 1 1 125 166.66666666666666 L 166.66666666666666 166.66666666666666Z" fill="#f46197"></path></g><g class="item" style="transform: translate(750px, 750px) rotate(180deg); transform-origin: 125px 125px; background-color: rgb(0, 0, 0);"><path d="M 0 0 L 250 0 L 250 250 L 0 250Z" fill="transparent"></path><path d="M 1.4210854715202004e-14 125.00000000000001 L 0 62.500000000000014 L 125 62.499999999999986 L 125.00000000000001 124.99999999999999Z" fill="#63e2b7"></path><path d="M 1.4210854715202004e-14 250 L 0 187.5 L 125 187.5 L 125.00000000000001 250Z" fill="#07393c"></path><path d="M 250 -7.105427357601002e-15 L 250 62.49999999999999 L 125 62.50000000000001 L 125 7.105427357601002e-15Z" fill="#63e2b7"></path><path d="M 250 125 L 250 187.5 L 125 187.5 L 125 125Z" fill="#2c666e"></path></g></svg>

<svg width="1000" height="1000" style="overflow:hidden;background-color:transparent" xmlns="http://www.w3.org/2000/svg"><g/><g class="item" style="transform:translate(0,0) rotate(270deg);transform-origin:125px 125px;background-color:#000"><path d="M0 0h250v250H0Z" fill="transparent"/><path d="M125 125H0L125 0l125 125Z" fill="#63e2b7"/><path d="M125 125V0l125 125-125 125Z" fill="#0a090c"/></g><g class="item" style="transform:translate(0,250px) rotate(90deg);transform-origin:125px 125px;background-color:#000"><path d="M0 0h250v250H0Z" fill="transparent"/><path d="M125 0a125 125 0 0 1 0 250V125Z" fill="#63e2b7"/><path d="M0 125a125 125 0 0 1 250 0H125Z" fill="#63e2b7"/></g><g class="item" style="transform:translate(0,500px) rotate(90deg);transform-origin:125px 125px;background-color:#000"><path d="M0 0h250v250H0Z" fill="transparent"/><path d="M0 0h250v125H125v125H0Z" fill="#07393c"/><path d="M250 0v250H125V125H0V0Z" fill="#63e2b7"/></g><g class="item" style="transform:translate(0,750px) rotate(360deg);transform-origin:125px 125px;background-color:#000"><path d="M0 0h250v250H0Z" fill="transparent"/><path d="M0 0v125l62.5-62.5L125 125V0Z" fill="#63e2b7"/><path d="M250 125V0l-62.5 62.5L125 0v125ZM0 250a62.5 62.5 0 0 1 125 0H62.5Z" fill="#2c666e"/><path d="M125 250a62.5 62.5 0 0 1 125 0h-62.5Z" fill="#f46197"/></g><g class="item" style="transform:translate(250px,0) rotate(90deg);transform-origin:125px 125px;background-color:#000"><path d="M0 0h250v250H0Z" fill="transparent"/><path d="m187.5 125 62.5 62.5-62.5 62.5-62.5-62.5Z" fill="#2c666e"/><path d="M0 0h62.5A62.5 62.5 0 1 1 0 62.5V0Z" fill="#63e2b7"/><path d="M0 125h62.5A62.5 62.5 0 1 1 0 187.5V125Z" fill="#07393c"/><path d="M250 0v62.5A62.5 62.5 0 1 1 187.5 0H250Z" fill="#0a090c"/></g><g class="item" style="transform:translate(250px,250px) rotate(0deg);transform-origin:125px 125px;background-color:#000"><path d="M0 0h250v250H0Z" fill="transparent"/><path d="M125 250a125 125 0 0 1 0-250v125ZM250 83.333 208.333 125 250 166.667h-41.667L166.667 125l41.666-41.667Z" fill="#07393c"/></g><g class="item" style="transform:translate(250px,500px) rotate(90deg);transform-origin:125px 125px;background-color:#000"><path d="M0 0h250v250H0Z" fill="transparent"/><path d="M250 250H125L0 0h125Z" fill="#07393c"/><path d="M83.333 83.333H125a41.667 41.667 0 0 1 0 83.334H83.333Z" fill="#f46197"/></g><g class="item" style="transform:translate(250px,750px) rotate(270deg);transform-origin:125px 125px;background-color:#000"><path d="M0 0h250v250H0Z" fill="transparent"/><path d="M250 125a125 125 0 0 1-250 0h125Z" fill="#63e2b7"/><path d="M166.667 125a41.667 41.667 0 0 1-83.334 0H125Z" fill="#2c666e"/></g><g class="item" style="transform:translate(500px,0) rotate(0deg);transform-origin:125px 125px;background-color:#000"><path d="M0 0h250v250H0Z" fill="transparent"/><path d="M0 125V62.5A62.5 62.5 0 1 1 62.5 125H0Zm125 0v62.5A62.5 62.5 0 1 1 62.5 125H125Z" fill="#0a090c"/><path d="M250 0v62.5A62.5 62.5 0 1 1 187.5 0H250Z" fill="#f46197"/><path d="M125 250v-62.5a62.5 62.5 0 1 1 62.5 62.5H125Z" fill="#63e2b7"/></g><g class="item" style="transform:translate(500px,250px) rotate(90deg);transform-origin:125px 125px;background-color:#000"><path d="M0 0h250v250H0Z" fill="transparent"/><path d="M250 250 0 125 250 0Z" fill="#2c666e"/><path d="M0 250 250 0v250Z" fill="#0a090c"/></g><g class="item" style="transform:translate(500px,500px) rotate(270deg);transform-origin:125px 125px;background-color:#000"><path d="M0 0h250v250H0Z" fill="transparent"/><path d="M125 125H62.5a62.5 62.5 0 0 1 0-125H125Z" fill="#2c666e"/><path d="M250 250h-62.5a62.5 62.5 0 0 1 0-125H250Z" fill="#07393c"/><path d="M250 125A125 125 0 0 1 125 0h125Z" fill="#f46197"/><path d="M0 250v-62.5a62.5 62.5 0 0 1 125 0V250Z" fill="#2c666e"/></g><g class="item" style="transform:translate(500px,750px) rotate(90deg);transform-origin:125px 125px;background-color:#000"><path d="M0 0h250v250H0Z" fill="transparent"/><path d="M0 125a125 125 0 0 1 125 125V125Z" fill="#07393c"/><path d="M125 125a125 125 0 0 1 125 125V125Z" fill="#2c666e"/><path d="M125 0v62.5a62.5 62.5 0 0 0-125 0V0Zm125 0v62.5a62.5 62.5 0 0 0-125 0V0Z" fill="#63e2b7"/></g><g class="item" style="transform:translate(750px,0) rotate(90deg);transform-origin:125px 125px;background-color:#000"><path d="M0 0h250v250H0Z" fill="transparent"/><path d="M0 0a62.5 62.5 0 0 1 0 125V62.5Z" fill="#07393c"/><path d="M0 125a62.5 62.5 0 0 1 0 125v-62.5ZM250 0v125L125 62.5V0Z" fill="#0a090c"/><path d="M250 125v125l-125-62.5V125Z" fill="#07393c"/></g><g class="item" style="transform:translate(750px,250px) rotate(90deg);transform-origin:125px 125px;background-color:#000"><path d="M0 0h250v250H0Z" fill="transparent"/><path d="M125 0a125 125 0 0 1 125 125H125Z" fill="#0a090c"/><path d="M125 250A125 125 0 0 1 0 125h125Z" fill="#63e2b7"/><path d="M250 250a125 125 0 0 1-125-125v125Z" fill="#0a090c"/><path d="M0 125A125 125 0 0 1 125 0v125Z" fill="#f46197"/></g><g class="item" style="transform:translate(750px,500px) rotate(360deg);transform-origin:125px 125px;background-color:#000"><path d="M0 0h250v250H0Z" fill="transparent"/><path d="M250 0v250a125 125 0 0 0-250 0V0Z" fill="#f46197"/><path d="M166.667 166.667v41.666A41.667 41.667 0 1 1 125 166.667h41.667Z" fill="#f46197"/></g><g class="item" style="transform:translate(750px,750px) rotate(180deg);transform-origin:125px 125px;background-color:#000"><path d="M0 0h250v250H0Z" fill="transparent"/><path d="M0 125V62.5h125V125Z" fill="#63e2b7"/><path d="M0 250v-62.5h125V250Z" fill="#07393c"/><path d="M250 0v62.5H125V0Z" fill="#63e2b7"/><path d="M250 125v62.5H125V125Z" fill="#2c666e"/></g></svg>
